X:18785
T:Willafjord
C:traditionell
S:collection Stephan Steiner
Z:abc transcription Simon Wascher
N:please mail errors to: simon.wascher@chello.at
M:2/4
L:1/16
K:D
B2|A2FA- A DFA|B2GB- B DGB|A2FA- A DFA|EFGA GFED|
A2FA- A DFA|B2GB- B DGB|ABcd efge|f2d2-d2:|
|:D2|f2df- f fdf|geaf gfeg|f2df- f Adf|e2ce- e Ace|
f2df- f fdf|geaf gfec|ABcd efge|f2d2d2:|


